X:2
T:The McDonalds of Scarborough
C:Bob Massie
H:2000
N:For Violet & Ian McDonald of Scarborough, Ontario.
M:6/8
L:1/8
K:G
z4 BA |G2 D D2 D |EDB, D2 B |d2 e dBA |
BAG E2 D |B2 D D2 D |EDB, D2 d |edB GAB |
AGG G2 A |G2 D D2 D |EDB, D2 B |d2 e dBA |
BAG E2 D |B2 D D2 D |EDB, D2 d |edB GAB |
AGG G2 A |B2 d d^cd |ded B2 G |c2 e ege |
e_e=e c2 A |B2 d d^cd |ded B2 G |ged edB |
dBA G3 |B2 d ded |dBd B2 G |cee gee |
gfe edc |B2 d d^cd |def g2 e |ded ged |
BGG G3 |]
